style-guide/assets/xd-icons-reply.svg

<?xml version="1.0" encoding="UTF-8"?>
<svg width="24px" height="24px" viewBox="0 0 24 24" version="1.1" xmlns="http://www.w3.org/2000/svg" xmlns:xlink="http://www.w3.org/1999/xlink">
    <!-- Generator: Sketch 51.3 (57544) - http://www.bohemiancoding.com/sketch -->
    <title>reply</title>
    <desc>Created with Sketch.</desc>
    <defs>
        <path d="M11.00025,13.9997448 C15.49725,13.9997448 19.60625,16.3237448 21.95525,20.0027448 C21.98525,19.6717448 22.00025,19.3367448 22.00025,18.9997448 C22.00025,12.9347448 17.06525,7.99974483 11.00025,7.99974483 C10.44725,7.99974483 10.00025,7.55274483 10.00025,6.99974483 L10.00025,3.41374483 L2.41425,10.9997448 L10.00025,18.5857448 L10.00025,14.9997448 C10.00025,14.4467448 10.44725,13.9997448 11.00025,13.9997448 M22.31025,23.9997448 L22.30625,23.9997448 C21.88325,23.9977448 21.50725,23.7297448 21.36625,23.3317448 C19.93525,19.2637448 16.24525,16.4337448 12.00025,16.0447448 L12.00025,20.9997448 C12.00025,21.4037448 11.75725,21.7697448 11.38325,21.9237448 C11.01025,22.0777448 10.57925,21.9937448 10.29325,21.7067448 L0.29325,11.7067448 C-0.09775,11.3157448 -0.09775,10.6837448 0.29325,10.2927448 L10.29325,0.292744831 C10.57925,0.00674483116 11.00925,-0.0782551688 11.38325,0.0757448312 C11.75725,0.229744831 12.00025,0.595744831 12.00025,0.999744831 L12.00025,6.03774483 C18.70325,6.55074483 24.00025,12.1677448 24.00025,18.9997448 C24.00025,20.4977448 23.74825,21.9577448 23.25025,23.3387448 C23.10725,23.7357448 22.73125,23.9997448 22.31025,23.9997448" id="path-1"></path>
    </defs>
    <g id="reply" stroke="none" stroke-width="1" fill="none" fill-rule="evenodd">
        <mask id="mask-2" fill="white">
            <use xlink:href="#path-1"></use>
        </mask>
        <use id="icons/24px/Reply-Arrow" fill="#000000" xlink:href="#path-1"></use>
    </g>
</svg>

<svg viewBox="0 0 24 24" xmlns="http://www.w3.org/2000/svg">
    <path d="M11 14c4.497 0 8.606 2.324 10.955 6.003.03-.331.045-.666.045-1.003 0-6.065-4.935-11-11-11a1 1 0 0 1-1-1V3.414L2.414 11 10 18.586V15a1 1 0 0 1 1-1m11.31 10h-.004a1.003 1.003 0 0 1-.94-.668A11.003 11.003 0 0 0 12 16.045V21a.999.999 0 0 1-1.707.707l-10-10a.999.999 0 0 1 0-1.414l10-10A1.002 1.002 0 0 1 12 1v5.038c6.703.513 12 6.13 12 12.962 0 1.498-.252 2.958-.75 4.339a1 1 0 0 1-.94.66"/>
</svg>
